X: 131
T:The Ton
M:2/4
L:1/8
R:Reel
K:A
c/2d/2|"A"ea ac/2d/2|ce ec/2B/2|"A"AA "E7"BB|"A"c/2B/2c/2d/2 "E7"cc/2d/2
|"A"ea ac/2d/2|!
"A"ce ec/2B/2|AA "E7"B/2G/2B/2c/2|"A"A2 A:||:c/2d/2|"A"ea "D"fd|"A"ea "D
"fd|"A"e>c Ac|!
"E"B/2G/2B/2c/2 Bc/2d/2|"A"ea "D"fd|"A"ea "D"fd|"A"c/2e/2d/2c/2 "E7"B/2d
/2B/2G/2|"A"A2 A:||
% <A name="D1X132">
